dist/svg/u1F698.svg

<?xml version="1.0" encoding="UTF-8"?><svg id="Layer_1" xmlns="http://www.w3.org/2000/svg" viewBox="0 0 40 40"><g style="opacity:0;"><rect width="40" height="40" style="fill:none;"/></g><g><path d="M35.01734,21.01731v10.50507H4.98266v-10.50507c0-1.66146,1.34688-3.00833,3.00833-3.00833h24.01801c1.66146,0,3.00833,1.34688,3.00833,3.00833Z" style="fill:#cbcfd2;"/><path d="M28.33141,31.52234h6.68599v1.97198c0,.87387-.70947,1.58333-1.58333,1.58333h-3.51932c-.87387,0-1.58333-.70947-1.58333-1.58333v-1.97198h0Z" style="fill:#333d4b;"/><path d="M4.9826,31.52234h6.68599v1.97198c0,.87387-.70947,1.58333-1.58333,1.58333h-3.51932c-.87387,0-1.58333-.70947-1.58333-1.58333v-1.97198h0Z" style="fill:#333d4b;"/><path d="M32.009,18.00898l-2.53606-8.00336c-.50038-1.5791-1.966-2.65213-3.62248-2.65213H14.14886c-1.65659,0-3.12228,1.07317-3.62257,2.65241l-2.5353,8.00308" style="fill:#313d4c;"/><path d="M29.09473,26.48828H10.90527c-.65576,0-1.1875-.53125-1.1875-1.1875s.53174-1.1875,1.1875-1.1875H29.09473c.65576,0,1.1875,.53125,1.1875,1.1875s-.53174,1.1875-1.1875,1.1875Z" style="fill:#fff;"/></g></svg>

<svg id="Layer_1" data-name="Layer 1" xmlns="http://www.w3.org/2000/svg" viewBox="0 0 40 40"><defs><style>.cls-1,.cls-5{fill:none;}.cls-1{opacity:0;}.cls-2{fill:#cbcfd2;}.cls-3{fill:#333d4b;}.cls-4{fill:#313d4c;}.cls-5{stroke:#fff;stroke-linecap:round;stroke-miterlimit:10;stroke-width:2.375px;}</style></defs><rect class="cls-1" width="40" height="40"/><path class="cls-2" d="M35.017,21.017V31.522H4.983v-10.5a3.008,3.008,0,0,1,3.008-3.008H32.009A3.008,3.008,0,0,1,35.017,21.017Z"/><path class="cls-3" d="M28.331,31.522h6.686a0,0,0,0,1,0,0v1.972a1.583,1.583,0,0,1-1.583,1.583H29.915a1.583,1.583,0,0,1-1.583-1.583V31.522A0,0,0,0,1,28.331,31.522Z"/><path class="cls-3" d="M4.983,31.522h6.686a0,0,0,0,1,0,0v1.972a1.583,1.583,0,0,1-1.583,1.583H6.566a1.583,1.583,0,0,1-1.583-1.583V31.522A0,0,0,0,1,4.983,31.522Z"/><path class="cls-4" d="M32.009,18.009l-2.536-8A3.8,3.8,0,0,0,25.85,7.353h-11.7a3.8,3.8,0,0,0-3.623,2.653l-2.535,8"/><line class="cls-5" x1="10.905" y1="25.301" x2="29.095" y2="25.301"/></svg>
